X:60
T:Garryowen
M:6/8
L:1/8
K:G
|:gf|edc BAG|BcB Bgf|edc BAG|ABA Agf|edc BAG|BcB B2c|def gdB|ABA A:|!
|:Bc|d2B d2B|d2B dgf|e2c e2c|e2c e2f|g2a b2a|gfe dBc|def gdc|ABA:|

